assets/svg/1F565.svg

<svg xmlns="http://www.w3.org/2000/svg" viewBox="0 0 64 64" enable-background="new 0 0 64 64"><circle fill="#e0e7ec" cx="31.761" cy="31.765" r="29.425"/><path fill="#d1d7da" d="m51.911 46.825c-16.253 0-29.425-13.174-29.425-29.425 0-5.405 1.481-10.45 4.02-14.802-13.68 2.528-24.05 14.499-24.05 28.911 0 16.251 13.174 29.425 29.425 29.425 10.849 0 20.299-5.887 25.402-14.621-1.744.322-3.538.512-5.376.512"/><path fill="#98a9b4" d="m0 31.765c0 17.515 14.249 31.765 31.763 31.765 17.515 0 31.765-14.25 31.765-31.765 0-17.515-14.25-31.765-31.765-31.765-17.514 0-31.763 14.25-31.763 31.765m6.184 0c0-14.1 11.476-25.579 25.579-25.579 14.1 0 25.582 11.476 25.582 25.579 0 14.11-11.478 25.582-25.582 25.582-14.1 0-25.579-11.476-25.579-25.582"/><path fill="#85939c" d="m29.899 52.57c0 1.429.844 2.587 1.877 2.587l0 0c1.036 0 1.877-1.158 1.877-2.587v-20.927c0-1.429-.841-2.584-1.877-2.584l0 0c-1.033 0-1.877 1.156-1.877 2.584v20.927"/><path fill="#788288" d="m20.446 19.907c-1.131-.87-2.562-.909-3.195-.088l0 0c-.628.821-.224 2.193.908 3.065l12 9.235c1.129.87 2.562.907 3.19.086l0 0c.631-.821.229-2.193-.903-3.062l-12-9.236"/></svg>

<?xml version="1.0" encoding="UTF-8" standalone="no"?>
<!-- Generator: Adobe Illustrator 16.0.0, SVG Export Plug-In . SVG Version: 6.00 Build 0)  -->

<svg
   xmlns:dc="http://purl.org/dc/elements/1.1/"
   xmlns:cc="http://creativecommons.org/ns#"
   xmlns:rdf="http://www.w3.org/1999/02/22-rdf-syntax-ns#"
   xmlns:svg="http://www.w3.org/2000/svg"
   xmlns="http://www.w3.org/2000/svg"
   xmlns:sodipodi="http://sodipodi.sourceforge.net/DTD/sodipodi-0.dtd"
   xmlns:inkscape="http://www.inkscape.org/namespaces/inkscape"
   version="1.1"
   id="Layer_1"
   x="0px"
   y="0px"
   width="64px"
   height="64px"
   viewBox="0 0 64 64"
   enable-background="new 0 0 64 64"
   xml:space="preserve"
   inkscape:version="0.48.5 r10040"
   sodipodi:docname="1F565.svg"
   inkscape:export-filename="D:\TESTINGEMOJI\SVGTEST\1F565.png"
   inkscape:export-xdpi="90"
   inkscape:export-ydpi="90"><metadata
   id="metadata3050"><rdf:RDF><cc:Work
       rdf:about=""><dc:format>image/svg+xml</dc:format><dc:type
         rdf:resource="http://purl.org/dc/dcmitype/StillImage" /><dc:title></dc:title></cc:Work></rdf:RDF></metadata><defs
   id="defs3048" /><sodipodi:namedview
   pagecolor="#ffffff"
   bordercolor="#666666"
   borderopacity="1"
   objecttolerance="10"
   gridtolerance="10"
   guidetolerance="10"
   inkscape:pageopacity="0"
   inkscape:pageshadow="2"
   inkscape:window-width="640"
   inkscape:window-height="480"
   id="namedview3046"
   showgrid="false"
   inkscape:zoom="3.6875"
   inkscape:cx="32"
   inkscape:cy="32"
   inkscape:window-x="532"
   inkscape:window-y="295"
   inkscape:window-maximized="0"
   inkscape:current-layer="Layer_1" />
<g
   id="g3034">
	<circle
   fill="#E0E7EC"
   cx="31.761"
   cy="31.765"
   r="29.425"
   id="circle3036" />
	<path
   fill="#D1D7DA"
   d="M51.911,46.825c-16.253,0-29.425-13.174-29.425-29.425c0-5.405,1.481-10.45,4.023-14.802   C12.829,5.126,2.46,17.097,2.46,31.509c0,16.251,13.174,29.425,29.425,29.425c10.849,0,20.299-5.887,25.402-14.621   C55.543,46.635,53.749,46.825,51.911,46.825z"
   id="path3038" />
	<path
   fill="#98A9B4"
   d="M0,31.765C0,49.28,14.249,63.53,31.763,63.53c17.515,0,31.765-14.25,31.765-31.765   C63.528,14.25,49.278,0,31.763,0C14.249,0,0,14.25,0,31.765z M6.184,31.765c0-14.104,11.476-25.579,25.579-25.579   c14.104,0,25.582,11.476,25.582,25.579c0,14.106-11.478,25.582-25.582,25.582C17.66,57.347,6.184,45.871,6.184,31.765z"
   id="path3040" />
	<path
   fill="#85939C"
   d="M29.899,52.57c0,1.429,0.844,2.587,1.877,2.587l0,0c1.036,0,1.877-1.158,1.877-2.587V31.643   c0-1.429-0.841-2.584-1.877-2.584l0,0c-1.033,0-1.877,1.156-1.877,2.584V52.57z"
   id="path3042" />
	<path
   fill="#788288"
   d="M20.446,19.907c-1.131-0.87-2.562-0.909-3.195-0.088l0,0c-0.628,0.821-0.224,2.193,0.908,3.065   l12.004,9.235c1.129,0.87,2.562,0.907,3.19,0.086l0,0c0.631-0.821,0.229-2.193-0.903-3.062L20.446,19.907z"
   id="path3044" />
</g>
</svg>
